X: 18964
T: Iniscealtra
R: reel
M: 4/4
K: Dmajor
|DEFA B2AB|defd beec|dcdB AGFA|BGEF G2FE|
D2FA BAFA|defd e2fg|agfd eBB2|ABde fddc:|
|:d2fd Adfa|bgef g2fe|dcdB A2FA|BABd egfe|
d2fd Adfa|bgef g2ag|fdd2 eBB2|ABde fddc:|

